X:0343
M:6/8
L:1/8
Q:3/8=120
P:ABA % Aird prints a da capo
K:D
P:A
d3  Adf|e3  ceg|fag fed|ced cBA|\
d3  Adf|e3  ceg|fed edc|ddd d3||
P:B

